flaticon/business/coin.svg

<svg xmlns="http://www.w3.org/2000/svg" width="32" height="32" viewBox="0 0 24 24">
    <path d="M 12 4.199219 C 5.269531 4.199219 0 6.835938 0 10.199219 L 0 13.800781 C 0 17.164062 5.269531 19.800781 12 19.800781 C 18.730469 19.800781 24 17.164062 24 13.800781 L 24 10.199219 C 24 6.835938 18.730469 4.199219 12 4.199219 Z M 12 5 C 18.070312 5 23.199219 7.382812 23.199219 10.199219 C 23.199219 13.019531 18.070312 15.398438 12 15.398438 C 5.929688 15.398438 0.800781 13.019531 0.800781 10.199219 C 0.800781 7.382812 5.929688 5 12 5 Z M 13.878906 16.128906 C 13.902344 16.128906 13.929688 16.125 13.953125 16.125 C 14.207031 16.101562 14.457031 16.078125 14.703125 16.050781 C 14.734375 16.046875 14.769531 16.046875 14.800781 16.042969 L 14.800781 18.828125 C 14.40625 18.875 14.007812 18.914062 13.601562 18.945312 L 13.601562 16.148438 C 13.691406 16.140625 13.785156 16.136719 13.878906 16.128906 Z M 15.601562 15.9375 C 15.621094 15.933594 15.640625 15.929688 15.660156 15.925781 C 15.695312 15.921875 15.734375 15.914062 15.769531 15.90625 C 16 15.871094 16.222656 15.832031 16.445312 15.789062 C 16.496094 15.777344 16.550781 15.769531 16.601562 15.757812 C 16.667969 15.742188 16.734375 15.730469 16.800781 15.714844 L 16.800781 18.480469 C 16.410156 18.566406 16.011719 18.644531 15.601562 18.710938 Z M 17.601562 15.527344 C 17.757812 15.488281 17.910156 15.445312 18.0625 15.402344 C 18.105469 15.390625 18.148438 15.378906 18.1875 15.367188 C 18.257812 15.34375 18.328125 15.324219 18.398438 15.300781 L 18.398438 18.035156 C 18.140625 18.121094 17.875 18.203125 17.601562 18.277344 Z M 19.199219 15.03125 C 19.316406 14.988281 19.425781 14.945312 19.539062 14.898438 C 19.566406 14.886719 19.597656 14.878906 19.625 14.867188 C 19.753906 14.8125 19.875 14.761719 20 14.707031 L 20 17.398438 C 19.746094 17.519531 19.476562 17.636719 19.199219 17.746094 Z M 20.800781 14.316406 C 20.8125 14.308594 20.828125 14.300781 20.84375 14.292969 C 20.859375 14.285156 20.878906 14.277344 20.894531 14.269531 C 21.070312 14.171875 21.238281 14.070312 21.398438 13.96875 C 21.4375 13.945312 21.472656 13.921875 21.507812 13.902344 C 21.539062 13.878906 21.570312 13.863281 21.601562 13.839844 L 21.601562 16.433594 C 21.355469 16.621094 21.089844 16.800781 20.800781 16.972656 Z M 2.398438 13.839844 C 2.429688 13.859375 2.460938 13.878906 2.492188 13.902344 C 2.527344 13.921875 2.5625 13.945312 2.601562 13.96875 C 2.761719 14.070312 2.929688 14.171875 3.105469 14.269531 C 3.121094 14.277344 3.140625 14.285156 3.15625 14.292969 C 3.171875 14.300781 3.183594 14.308594 3.199219 14.316406 L 3.199219 16.972656 C 2.910156 16.800781 2.644531 16.621094 2.398438 16.433594 Z M 4 14.707031 C 4.125 14.761719 4.246094 14.8125 4.375 14.867188 C 4.402344 14.878906 4.433594 14.886719 4.460938 14.898438 C 4.574219 14.945312 4.6875 14.988281 4.800781 15.03125 L 4.800781 17.746094 C 4.523438 17.636719 4.253906 17.519531 4 17.398438 Z M 5.601562 15.300781 C 5.671875 15.324219 5.742188 15.34375 5.8125 15.367188 C 5.851562 15.378906 5.894531 15.390625 5.9375 15.402344 C 6.089844 15.445312 6.242188 15.488281 6.398438 15.527344 L 6.398438 18.277344 C 6.125 18.203125 5.859375 18.121094 5.601562 18.035156 Z M 7.199219 15.714844 C 7.265625 15.730469 7.332031 15.742188 7.398438 15.757812 C 7.449219 15.769531 7.503906 15.777344 7.554688 15.789062 C 7.777344 15.832031 8 15.871094 8.230469 15.90625 C 8.265625 15.914062 8.304688 15.921875 8.339844 15.925781 C 8.359375 15.929688 8.378906 15.933594 8.398438 15.9375 L 8.398438 18.710938 C 7.988281 18.644531 7.589844 18.566406 7.199219 18.480469 Z M 9.199219 16.042969 C 9.230469 16.046875 9.265625 16.046875 9.296875 16.050781 C 9.542969 16.078125 9.792969 16.101562 10.046875 16.121094 C 10.070312 16.125 10.097656 16.128906 10.121094 16.128906 C 10.214844 16.136719 10.308594 16.140625 10.398438 16.148438 L 10.398438 18.941406 C 9.992188 18.914062 9.59375 18.875 9.199219 18.828125 Z M 0.800781 13.800781 L 0.800781 12.394531 C 0.8125 12.410156 0.828125 12.425781 0.839844 12.445312 C 0.933594 12.5625 1.03125 12.675781 1.136719 12.789062 C 1.144531 12.796875 1.148438 12.804688 1.15625 12.8125 C 1.269531 12.933594 1.394531 13.050781 1.523438 13.164062 C 1.546875 13.1875 1.574219 13.210938 1.601562 13.234375 L 1.601562 15.691406 C 1.085938 15.101562 0.800781 14.464844 0.800781 13.800781 Z M 11.199219 18.984375 L 11.199219 16.1875 C 11.464844 16.195312 11.730469 16.199219 12 16.199219 C 12.269531 16.199219 12.535156 16.195312 12.800781 16.1875 L 12.800781 18.984375 C 12.535156 18.992188 12.269531 19 12 19 C 11.730469 19 11.464844 18.992188 11.199219 18.984375 Z M 23.199219 12.394531 L 23.199219 13.800781 C 23.199219 14.464844 22.914062 15.101562 22.398438 15.691406 L 22.398438 13.234375 C 22.425781 13.210938 22.453125 13.1875 22.476562 13.164062 C 22.605469 13.050781 22.730469 12.933594 22.84375 12.8125 C 22.851562 12.804688 22.855469 12.796875 22.863281 12.789062 C 22.96875 12.675781 23.066406 12.5625 23.160156 12.445312 C 23.171875 12.425781 23.1875 12.410156 23.199219 12.394531 Z M 23.199219 12.394531"/>
    <path d="M 6.386719 13.84375 L 6.28125 13.882812 L 7.660156 14.171875 C 7.855469 14.210938 8.054688 14.242188 8.25 14.277344 C 8.289062 14.285156 8.328125 14.292969 8.367188 14.296875 C 8.589844 14.335938 8.816406 14.371094 9.042969 14.402344 C 9.199219 14.421875 9.355469 14.441406 9.515625 14.460938 C 9.660156 14.476562 9.804688 14.492188 9.949219 14.503906 C 10.21875 14.53125 10.492188 14.550781 10.769531 14.566406 C 10.820312 14.570312 10.871094 14.570312 10.921875 14.574219 C 11.277344 14.589844 11.636719 14.601562 12 14.601562 C 12.355469 14.601562 12.707031 14.589844 13.050781 14.574219 C 13.105469 14.574219 13.15625 14.570312 13.210938 14.566406 C 13.476562 14.550781 13.742188 14.53125 14 14.507812 C 14.160156 14.496094 14.316406 14.476562 14.472656 14.460938 C 14.613281 14.445312 14.753906 14.425781 14.894531 14.410156 C 15.144531 14.375 15.390625 14.339844 15.632812 14.296875 C 15.660156 14.292969 15.683594 14.289062 15.710938 14.285156 C 15.902344 14.25 16.097656 14.222656 16.285156 14.183594 L 17.644531 13.902344 L 17.542969 13.863281 C 20.507812 13.011719 22.398438 11.554688 22.398438 10.199219 C 22.398438 8.125 17.953125 5.800781 12 5.800781 C 6.046875 5.800781 1.601562 8.125 1.601562 10.199219 C 1.601562 11.542969 3.460938 12.988281 6.386719 13.84375 Z M 10.371094 11.800781 C 9.550781 11.53125 9.082031 11.066406 8.976562 10.421875 L 8.933594 10.152344 L 8.664062 10.09375 C 8.488281 10.054688 8.429688 9.996094 8.417969 9.992188 L 8.511719 9.691406 C 8.523438 9.65625 8.632812 9.539062 8.886719 9.464844 L 9.066406 9.414062 L 9.144531 9.242188 C 9.246094 9.015625 9.382812 8.8125 9.558594 8.640625 C 9.632812 8.5625 9.691406 8.507812 9.742188 8.464844 C 9.914062 8.308594 10.019531 8.183594 10.050781 7.988281 C 10.054688 7.988281 10.054688 7.988281 10.058594 7.992188 C 10.644531 8.203125 11.320312 8.226562 11.785156 8.207031 C 11.855469 8.203125 11.925781 8.203125 12 8.203125 C 13.613281 8.203125 14.523438 8.535156 14.855469 9.25 L 14.933594 9.414062 L 15.109375 9.464844 C 15.367188 9.539062 15.476562 9.65625 15.488281 9.691406 L 15.582031 9.972656 C 15.574219 9.988281 15.507812 10.058594 15.332031 10.09375 L 15.0625 10.152344 L 15.019531 10.421875 C 14.917969 11.066406 14.449219 11.53125 13.628906 11.800781 L 13.316406 11.902344 L 13.414062 12.734375 C 13.445312 13.019531 13.65625 13.265625 13.964844 13.378906 L 14.640625 13.632812 C 14.5625 13.644531 14.484375 13.652344 14.40625 13.664062 C 14.140625 13.691406 13.875 13.714844 13.605469 13.734375 C 13.480469 13.746094 13.359375 13.757812 13.230469 13.761719 C 12.410156 13.808594 11.574219 13.808594 10.753906 13.761719 C 10.625 13.753906 10.496094 13.742188 10.371094 13.734375 C 10.101562 13.714844 9.835938 13.6875 9.574219 13.660156 C 9.492188 13.652344 9.414062 13.640625 9.335938 13.628906 L 10.023438 13.378906 C 10.339844 13.265625 10.554688 13.019531 10.585938 12.730469 L 10.683594 11.902344 Z M 12 6.601562 C 17.957031 6.601562 21.601562 8.929688 21.601562 10.199219 C 21.601562 11.132812 19.625 12.636719 16.21875 13.367188 L 14.246094 12.632812 C 14.226562 12.625 14.210938 12.617188 14.203125 12.609375 L 14.183594 12.445312 C 15.195312 12.027344 15.605469 11.367188 15.757812 10.796875 C 15.988281 10.707031 16.164062 10.5625 16.273438 10.378906 C 16.382812 10.191406 16.410156 9.96875 16.34375 9.757812 L 16.253906 9.457031 C 16.160156 9.15625 15.882812 8.902344 15.496094 8.75 C 14.808594 7.546875 13.183594 7.402344 12 7.402344 C 11.914062 7.402344 11.832031 7.40625 11.75 7.40625 C 11.195312 7.429688 10.691406 7.371094 10.332031 7.238281 C 10.128906 7.164062 10.042969 7.113281 10.007812 7.085938 C 9.835938 6.960938 9.613281 6.976562 9.46875 7.050781 C 9.316406 7.125 9.222656 7.273438 9.222656 7.4375 C 9.222656 7.527344 9.226562 7.632812 9.246094 7.753906 C 9.253906 7.777344 9.257812 7.800781 9.257812 7.820312 C 9.242188 7.835938 9.222656 7.851562 9.203125 7.871094 C 9.144531 7.925781 9.074219 7.988281 8.988281 8.074219 C 8.789062 8.277344 8.621094 8.503906 8.492188 8.753906 C 8.109375 8.90625 7.835938 9.160156 7.746094 9.457031 L 7.652344 9.757812 C 7.589844 9.96875 7.613281 10.1875 7.726562 10.378906 C 7.832031 10.5625 8.011719 10.703125 8.242188 10.796875 C 8.394531 11.367188 8.804688 12.027344 9.8125 12.445312 L 9.796875 12.605469 C 9.785156 12.613281 9.773438 12.621094 9.753906 12.628906 L 7.730469 13.355469 C 4.355469 12.621094 2.398438 11.128906 2.398438 10.199219 C 2.398438 8.929688 6.042969 6.601562 12 6.601562 Z M 12 6.601562"/>
</svg>

<svg xmlns="http://www.w3.org/2000/svg" width="32" height="32" viewBox="0 0 24 24">
    <path d="M12 4.2c-6.73 0-12 2.636-12 6v3.6c0 3.364 5.27 6 12 6s12-2.636 12-6v-3.6c0-3.364-5.27-6-12-6zm0 .8c6.07 0 11.2 2.383 11.2 5.2 0 2.82-5.13 5.198-11.2 5.198C5.93 15.398.8 13.02.8 10.2.8 7.383 5.93 5 12 5zm1.879 11.129c.023 0 .05-.004.074-.004.254-.023.504-.047.75-.074.031-.004.067-.004.098-.008v2.785c-.395.047-.793.086-1.2.117v-2.797c.09-.007.184-.011.278-.02zm1.723-.192l.058-.011a1.07 1.07 0 0 0 .11-.02c.23-.035.453-.074.675-.117.051-.012.106-.02.157-.031.066-.016.132-.028.199-.043v2.765c-.39.086-.79.165-1.2.23zm2-.41c.156-.039.308-.082.46-.125.043-.011.086-.023.125-.035.07-.023.141-.043.211-.066v2.734c-.257.086-.523.168-.796.242zm1.597-.496c.117-.043.227-.086.34-.133.027-.011.059-.02.086-.03.129-.056.25-.106.375-.161v2.691c-.254.122-.523.239-.8.348zm1.602-.715a.426.426 0 0 1 .043-.023l.05-.023c.176-.098.344-.2.504-.301.04-.024.075-.047.11-.067.031-.023.062-.039.094-.062v2.594a8.408 8.408 0 0 1-.801.539zM2.398 13.84c.032.02.063.039.094.062.035.02.07.043.11.067.16.101.328.203.503.3l.051.024.043.023v2.657a8.408 8.408 0 0 1-.8-.54zM4 14.707c.125.055.246.105.375.16.027.012.059.02.086.031.113.047.226.09.34.133v2.715c-.278-.11-.547-.226-.801-.348zm1.602.594l.21.066.125.035c.153.043.305.086.461.125v2.75c-.273-.074-.539-.156-.796-.242zm1.597.414c.067.015.133.027.2.043.05.012.105.02.156.031.222.043.445.082.675.117a1011.471 1011.471 0 0 0 .168.031v2.774c-.41-.066-.808-.145-1.199-.23zm2 .328c.031.004.067.004.098.008.246.027.496.05.75.07.023.004.05.008.074.008.094.008.188.012.277.02v2.792a23.542 23.542 0 0 1-1.199-.113zM.801 13.801v-1.406c.011.015.027.03.039.05.094.117.191.23.297.344.008.008.011.016.02.024.113.12.238.238.366.351.024.024.051.047.079.07v2.457c-.516-.59-.801-1.226-.801-1.89zm10.398 5.183v-2.797a27.173 27.173 0 0 0 1.602 0v2.797A27.11 27.11 0 0 1 12 19c-.27 0-.535-.008-.8-.016zm12-6.59v1.407c0 .664-.285 1.3-.8 1.89v-2.457c.027-.023.054-.046.078-.07a5.24 5.24 0 0 0 .367-.351c.008-.008.011-.016.02-.024.105-.113.202-.226.296-.344.012-.02.027-.035.04-.05zm0 0"/>
    <path d="M6.387 13.844l-.106.039 1.38.289c.194.039.394.07.589.105.04.008.078.016.117.02a18.739 18.739 0 0 0 1.149.164c.144.016.289.031.433.043.27.027.543.047.82.062.051.004.102.004.153.008.355.016.715.028 1.078.028.355 0 .707-.012 1.05-.028.055 0 .106-.004.16-.008.267-.015.532-.035.79-.058.16-.012.316-.031.473-.047.14-.016.28-.035.422-.05.25-.036.496-.071.738-.114l.078-.012c.191-.035.387-.062.574-.101l1.36-.282-.102-.039c2.965-.851 4.855-2.308 4.855-3.664 0-2.074-4.445-4.398-10.398-4.398-5.953 0-10.398 2.324-10.398 4.398 0 1.344 1.859 2.79 4.785 3.645zM10.37 11.8c-.82-.27-1.289-.735-1.394-1.38l-.043-.269-.27-.058c-.176-.04-.234-.098-.246-.102l.094-.3c.011-.036.12-.153.375-.227l.18-.05.078-.173c.101-.226.238-.43.414-.601.074-.079.132-.133.183-.176.172-.156.278-.281.309-.477.004 0 .004 0 .008.004.586.211 1.261.235 1.726.215.07-.004.14-.004.215-.004 1.613 0 2.523.332 2.855 1.047l.079.164.175.05c.258.075.368.192.38.227l.093.282c-.008.015-.074.086-.25.12l-.27.06-.042.269c-.102.644-.57 1.11-1.391 1.379l-.313.101.098.832c.031.286.242.532.55.645l.677.254c-.079.012-.157.02-.235.031-.265.027-.531.05-.8.07-.126.012-.247.024-.376.028-.82.047-1.656.047-2.476 0-.129-.008-.258-.02-.383-.028-.27-.02-.535-.046-.797-.074a4.394 4.394 0 0 1-.238-.031l.687-.25c.317-.113.532-.36.563-.649l.098-.828zM12 6.6c5.957 0 9.602 2.329 9.602 3.598 0 .934-1.977 2.438-5.383 3.168l-1.973-.734a.14.14 0 0 1-.043-.024l-.02-.164c1.012-.418 1.422-1.078 1.575-1.648.23-.09.406-.235.515-.418a.768.768 0 0 0 .07-.621l-.09-.301c-.093-.3-.37-.555-.757-.707C14.81 7.547 13.184 7.402 12 7.402c-.086 0-.168.004-.25.004-.555.024-1.059-.035-1.418-.168a1.29 1.29 0 0 1-.324-.152.53.53 0 0 0-.54-.035.43.43 0 0 0-.245.386c0 .09.004.196.023.317a.217.217 0 0 1 .012.066l-.055.051c-.058.055-.129.117-.215.203-.199.203-.367.43-.496.68-.383.152-.656.406-.746.703l-.094.3a.77.77 0 0 0 .075.622c.105.184.285.324.515.418.153.57.563 1.23 1.57 1.648l-.015.16c-.012.008-.024.016-.043.024l-2.024.726c-3.375-.734-5.332-2.226-5.332-3.156 0-1.27 3.645-3.597 9.602-3.597zm0 0"/>
</svg>
